X: 1272
M: 3/8
L: 1/16
K: C
e2e2 f>d | c2c2 d>B | c2c2c2 | e4 c>e |\
g2g2 a>f | e2e2[fd]>[dB] | c2c2 d>B | c4 :|
|: G>e |\
g4 ag | ge3 ce | ed3 Bd | dc3 G>e |\
g4 ag | ge3 ce | e3d Bd | c4 :|
|: GB |\
|: ef |\
g3agf | eg3 c'2 | bd'3 d'2 | c'e'3 ef |\
g3agf | eg3 g2 | fd3 Bd | c4 H:|

